X: 765
T: Jianzu
%%abc-version 2.0
%%abcx-abcm2ps-target-version 5.9.1 (29 Sep 2008)
%%abc-creator hum2abc beta
%%abcx-conversion-date 2013/10/02 07:52:30
%%abc-edited-by Helmut Schaffrath
%%humdrum-veritas 4068528810
%%humdrum-veritas-data 1439692094
%%continueall 1
%%barnumbers 0
L: 1/8
M: 2/4
K: Bb
c'2c' c' [I:setbarnb 1]| 
b> c' d' f' | 
c'4 | 
d'2d' f' | 
c' d' c' g | 
f4 | 
f2e d | 
c'2 | 
b2a g | 
b4 | 
g b g f | 
e2g3/ d/ | 
c4 |]  



